app/assets/images/payment_icons/alandsbanken.svg

<svg xmlns="http://www.w3.org/2000/svg" width="38" height="24" fill="none" aria-labelledby="pi-alandsbanken" role="img" viewBox="0 0 38 24"><title id="pi-alandsbanken">Ålandsbanken</title><path fill="#fff" d="M0 0h38v24H0z"/><path fill="#006940" d="M29.11 20.11 21.44 7.75h-9l1.69 2.7-5.24 9.64h4l1.43-2.68h7.33l-1.45 2.68h8.91zm-9.58-5.67H16c1.55-2.87.1-.22 1.72-3.09 1.77 2.87 1.9 3 1.86 3.09zM14.71 6.7 13 3.89h6l1.75 2.76h-6z"/></svg>

<svg xmlns="http://www.w3.org/2000/svg" width="38" height="24" viewBox="0 0 38 24" fill="none" aria-labelledby="pi-alandsbanken" role="img"><title id="pi-alandsbanken">&#xC5;landsbanken</title><rect width="38" height="24" fill="white"/><path d="M29.11 20.11L21.44 7.75001H12.44L14.13 10.45L8.89 20.09H12.89L14.32 17.41H21.65L20.2 20.09H29.11V20.11ZM19.53 14.44H16C17.55 11.57 16.1 14.22 17.72 11.35C19.49 14.22 19.62 14.35 19.58 14.44H19.53ZM14.71 6.70001L13 3.89001H19L20.75 6.65001H14.75L14.71 6.70001Z" fill="#006940"/></svg>
